X:76
T:Rory O'More
S:American Veteran Fifer #76
C:Donated by W.R. Miller, Co.K.15th O.V.V.I.
M:6/8
L:1/8
Q:1/8=300
K:G 
%%MIDI program 72
%%MIDI transpose 8
%%MIDI ratio 3 1
e | dGG BAG | dGG G2e | dcB BAG | FGA ABc |
dGG BAG | Bcd edc | Bcd def | gGG G2 :|
|: g | gfe dcB | cBA G2F | EFG ABc | edc d2d/f/ |
gfe dcB | cBA G2F | EFG ABc | edc d2 :|


